libs/ui/packages/crypto-icons/src/svg/NEBL.svg

<svg width="24" height="24" viewBox="0 0 24 24" fill="none">
<path d="M15.27 10.2449V13.8329L12.0397 15.6082V12.0217L15.2692 10.2464L15.27 10.2449ZM19.125 9.3254V14.6737C19.125 15.0539 19.02 15.4259 18.8228 15.7492C18.6278 16.0717 18.345 16.3454 17.9948 16.5382L15.5858 17.8619V14.3324L15.8903 14.1652V9.9059L18.8407 8.28365C19.0238 8.59865 19.125 8.95491 19.125 9.32616V9.3254ZM6.00525 16.5382C5.67684 16.3588 5.39941 16.0989 5.199 15.7829C4.98814 15.4516 4.87578 15.0671 4.875 14.6744V11.2499L8.193 13.8412V13.9852L8.19825 14.1337L8.45625 14.2859L11.7682 16.1069L12.0413 16.2569V19.4999C11.6325 19.5081 11.2286 19.4093 10.8698 19.2134L6.00525 16.5374V16.5382ZM5.86725 7.54491L9.375 5.6249L11.76 7.9349L8.193 9.90215V10.2022L4.8825 12.0202L4.875 9.32465C4.875 8.9444 4.98 8.5709 5.17875 8.24765C5.35275 7.96265 5.58825 7.72265 5.86725 7.54415V7.54491ZM17.9948 7.46165C18.3461 7.65354 18.6385 7.93744 18.8407 8.2829L15.8903 9.90515V9.87815L15.5858 9.7109L12.3353 7.9244L15.5858 6.13715L17.9948 7.46165ZM4.8825 12.0217L8.193 10.2014V13.8412L4.8825 12.0209V12.0217ZM12.0413 7.7849V4.4999C12.4222 4.50569 12.796 4.60429 13.1302 4.78715L15.5858 6.13715L12.3353 7.92365L12.0413 7.7849ZM11.7682 7.9349L8.46225 6.1184L11.0138 4.71516C11.3357 4.56701 11.6869 4.49343 12.0413 4.4999V7.7849L11.7682 7.9349ZM12.0623 16.2682L12.3353 16.1182L15.5468 17.8837L13.1302 19.2127C12.7959 19.3952 12.4221 19.4935 12.0413 19.4992V16.2569L12.0623 16.2682ZM15.5858 14.3317V17.8619L15.5468 17.8837L12.3353 16.1182L15.5858 14.3317Z" fill="#50479E"/>
</svg>

<svg width="24" height="24" viewBox="0 0 24 24" fill="none"><path fill="#50479e" d="M15.27 10.245v3.588l-3.23 1.775v-3.586zm3.855-.92v5.349c0 .38-.105.752-.302 1.075a2.2 2.2 0 0 1-.828.79l-2.41 1.323v-3.53l.305-.167v-4.26l2.95-1.621c.184.315.285.67.285 1.042m-13.12 7.213a2.2 2.2 0 0 1-.806-.755 2.07 2.07 0 0 1-.324-1.109V11.25l3.318 2.591v.144l.005.149.258.152 3.312 1.82.273.15V19.5a2.35 2.35 0 0 1-1.171-.287zm-.138-8.993 3.508-1.92 2.385 2.31-3.567 1.967v.3l-3.31 1.818-.008-2.695c0-.38.105-.754.304-1.077.174-.285.41-.525.688-.704m12.128-.083c.351.192.643.475.846.82l-2.95 1.623v-.027l-.305-.167-3.25-1.787 3.25-1.787zm-13.112 4.56 3.31-1.82v3.64l-3.31-1.821m7.158-4.237V4.5a2.35 2.35 0 0 1 1.09.287l2.455 1.35-3.25 1.787zm-.273.15L8.462 6.118l2.552-1.403A2.36 2.36 0 0 1 12.04 4.5v3.285zm.294 8.333.273-.15 3.212 1.766-2.417 1.329c-.334.182-.708.28-1.089.286v-3.242zm3.524-1.936v3.53l-.04.022-3.21-1.766z"/></svg>
